X: 10081
T: NOONAN'S HORNPIPE
C: Bob McQuillen 5 Nov 93
B: Bob's Note Book 10 #81
%R: hornpipe, reel
Z: 2020 John Chambers <jc:trillian.mit.edu>
M: C
L: 1/8
K: G
DE \
| G2BG D2dB | AGAB G2Bd | e2ce d2BG | FGAF DcBA |\
| G2BG DEGB | dBAB GBdg | eceg dBGA | B2G2 G2  :|
|: Bd \
| e2eg edBd | edBA G2Bd | e2eg edBG | DGBG AGED |\
| G2BA GBdg | eceg agfe | dBGB cAFG | A2G2 G2  :|
%%begintext align
%% It was so nice to get to know James
%% Noonan from Francestown (and New Jersey!) when he became a student
%% at Conval High School and joined the weight-lifting group I coach
%% there. He's a great boy, and now he's married to Nicki, has a cute little
%% daughter named Ashley, goes to the University of West Virginia in
%% Morgantown, plays on the hockey team, and hist a 4.0 grade point
%% average. Pretty good, huh? I think so!
%% Love ya, kid --
%%endtext

%%sep 1 1 500

%%sep 1 1 500

